assets/images/icons/tabs_tibs.svg

<svg width="52" height="52" viewBox="0 0 52 52" fill="none" xmlns="http://www.w3.org/2000/svg">
<path d="M11.8125 42.1249H3.93749C2.3125 42.1249 1 40.8124 1 39.1874V14" stroke="#79655E" stroke-width="2" stroke-miterlimit="10" stroke-linecap="round" stroke-linejoin="round"/>
<path d="M51 14V39.1874C51 40.8124 49.6875 42.1249 48.0625 42.1249H40.1875" stroke="#79655E" stroke-width="2" stroke-miterlimit="10" stroke-linecap="round" stroke-linejoin="round"/>
<path d="M9.24998 19.5H5.18749C2.875 19.5 1 17.625 1 15.3125V13.375C1 10.875 3.0625 8.8125 5.56249 8.8125H13.5625H39.1874H46.3749C48.8749 8.8125 50.9374 10.875 50.9374 13.375V15.3125C50.9374 17.625 49.0624 19.5 46.7499 19.5H42.9374" stroke="#79655E" stroke-width="2" stroke-miterlimit="10" stroke-linecap="round" stroke-linejoin="round"/>
<path d="M38.9994 19.5H13.2495" stroke="#79655E" stroke-width="2" stroke-miterlimit="10" stroke-linecap="round" stroke-linejoin="round"/>
<path d="M11.25 23.25C10.125 23.25 9.25 22.375 9.25 21.25V17.6875C9.25 17.0625 9.75 16.5625 10.375 16.5625H12.1875C12.8125 16.5625 13.3125 17.0625 13.3125 17.6875V21.25C13.25 22.3125 12.375 23.25 11.25 23.25Z" stroke="#79655E" stroke-width="2" stroke-miterlimit="10" stroke-linecap="round" stroke-linejoin="round"/>
<path d="M41 23.25C39.875 23.25 39 22.375 39 21.25V17.6875C39 17.0625 39.5 16.5625 40.125 16.5625H41.9375C42.5625 16.5625 43.0625 17.0625 43.0625 17.6875V21.25C43 22.3125 42.125 23.25 41 23.25Z" stroke="#79655E" stroke-width="2" stroke-miterlimit="10" stroke-linecap="round" stroke-linejoin="round"/>
<path d="M31.625 8.81249V5.9375C31.625 5.3125 31.125 4.75 30.4375 4.75H22.4375C21.8125 4.75 21.25 5.25 21.25 5.9375V8.81249" stroke="#79655E" stroke-width="2" stroke-miterlimit="10" stroke-linecap="round" stroke-linejoin="round"/>
<path d="M18 8.81248V5.93749C18 3.5 20 1.5 22.4375 1.5H30.4375C32.875 1.5 34.875 3.5 34.875 5.93749V8.81248" stroke="#79655E" stroke-width="2" stroke-miterlimit="10" stroke-linecap="round" stroke-linejoin="round"/>
<path d="M24.9375 42.875C24.25 42.875 23.6875 42.3125 23.6875 41.625V39.25H21.3125C20.625 39.25 20.0625 38.6875 20.0625 38V35.875C20.0625 35.1875 20.625 34.625 21.3125 34.625H23.6875V32.25C23.6875 31.5625 24.25 31 24.9375 31H27.0625C27.75 31 28.3125 31.5625 28.3125 32.25V34.625H30.6875C31.375 34.625 31.9375 35.1875 31.9375 35.875V38C31.9375 38.6875 31.375 39.25 30.6875 39.25H28.3125V41.625C28.3125 42.3125 27.75 42.875 27.0625 42.875H24.9375Z" stroke="#79655E" stroke-width="2" stroke-miterlimit="10" stroke-linecap="round" stroke-linejoin="round"/>
<path d="M26 22.75C26 22.75 20 27.375 15.0625 27.375V39.125C15.0625 41.5625 16.0625 43.7499 17.75 44.9999C19.5 46.3124 24.6875 49.7499 24.9375 49.8749L26.0625 50.6249L27.1875 49.8749C27.4375 49.7499 32.625 46.3124 34.375 44.9999C36.0624 43.7499 37.0624 41.5625 37.0624 39.125V27.4375C32 27.4375 26 22.75 26 22.75Z" stroke="#79655E" stroke-width="2" stroke-miterlimit="10" stroke-linecap="round" stroke-linejoin="round"/>
</svg>

<svg width="52" height="52" fill="none" xmlns="http://www.w3.org/2000/svg"><path d="M11.813 42.125H3.936A2.934 2.934 0 011 39.187V14m50 0v25.187a2.934 2.934 0 01-2.938 2.938h-7.874" stroke="#79655E" stroke-width="2" stroke-miterlimit="10" stroke-linecap="round" stroke-linejoin="round"/><path d="M9.25 19.5H5.187A4.188 4.188 0 011 15.312v-1.937c0-2.5 2.063-4.563 4.562-4.563h40.813c2.5 0 4.562 2.063 4.562 4.563v1.938A4.188 4.188 0 0146.75 19.5h-3.813M39 19.5H13.25" stroke="#79655E" stroke-width="2" stroke-miterlimit="10" stroke-linecap="round" stroke-linejoin="round"/><path d="M11.25 23.25c-1.125 0-2-.875-2-2v-3.563c0-.625.5-1.125 1.125-1.125h1.813c.624 0 1.124.5 1.124 1.125v3.563c-.062 1.063-.937 2-2.062 2zm29.75 0c-1.125 0-2-.875-2-2v-3.563c0-.625.5-1.125 1.125-1.125h1.813c.624 0 1.124.5 1.124 1.125v3.563c-.062 1.063-.937 2-2.062 2zM31.625 8.812V5.938c0-.625-.5-1.188-1.188-1.188h-8c-.625 0-1.187.5-1.187 1.188v2.874" stroke="#79655E" stroke-width="2" stroke-miterlimit="10" stroke-linecap="round" stroke-linejoin="round"/><path d="M18 8.812V5.937C18 3.5 20 1.5 22.438 1.5h8c2.437 0 4.437 2 4.437 4.437v2.875m-9.937 34.063c-.688 0-1.25-.563-1.25-1.25V39.25h-2.375c-.688 0-1.25-.563-1.25-1.25v-2.125c0-.688.562-1.25 1.25-1.25h2.375V32.25c0-.688.562-1.25 1.25-1.25h2.125c.687 0 1.25.563 1.25 1.25v2.375h2.375c.687 0 1.25.563 1.25 1.25V38c0 .688-.563 1.25-1.25 1.25h-2.375v2.375c0 .688-.563 1.25-1.25 1.25h-2.125z" stroke="#79655E" stroke-width="2" stroke-miterlimit="10" stroke-linecap="round" stroke-linejoin="round"/><path d="M26 22.75s-6 4.625-10.938 4.625v11.75c0 2.438 1 4.625 2.688 5.875 1.75 1.312 6.938 4.75 7.188 4.875l1.125.75 1.125-.75c.25-.125 5.437-3.563 7.187-4.875 1.687-1.25 2.687-3.438 2.687-5.875V27.437C32 27.438 26 22.75 26 22.75z" stroke="#79655E" stroke-width="2" stroke-miterlimit="10" stroke-linecap="round" stroke-linejoin="round"/></svg>
